X:1
T:Minuet. SenH.128, A
T:Minuet. SenH.128, A
T:in Hand C
C:in Hand C
L:1/8
Q:1/4=100
M:3/4
K:F
V:1 treble 
V:1
 d2 B4 | d2 B4 | BABcde | fefg f2 | c'2 b2 g2 | c'2 b2 f2 | c2 f2 e2 | f6 || c'2 f4 | c'2 f4 | %10
 g2 f2 e2 | d4 e2 | d2 B4 | d2 B4 | BABcde | fefg f2 | babc'd'e' | f'2 d'c'ba | f2 b2 a2 | b4 |] %20

